uui/icons/empty-table.svg

<svg width="232" height="180" viewBox="0 0 232 180" fill="none" xmlns="http://www.w3.org/2000/svg">
<g clip-path="url(#clip0_18395_59719)">
<path d="M150.585 1.53517C49.4828 -11.4952 27.4814 61.8041 45.7256 97.4814C56.3063 118.171 6.08421 168.273 63.469 178.949C91.007 184.072 99.469 165.608 125.902 168.294C161.302 171.894 274.069 163.564 214.251 89.3793C182.538 50.0441 215.277 9.8731 150.585 1.53517Z" fill="#F5F6FA"/>
<path d="M58.069 136.51L57.4152 140.748L56.1449 135.368C52.511 133.312 48.6687 131.647 44.6828 130.403L44.6001 136.039L42.0552 129.646C37.599 128.459 33.0114 127.836 28.4001 127.792L29.1035 133.97L25.7476 127.862C21.5969 128.045 17.4922 128.808 13.5532 130.13L15.8828 133.655C15.8828 133.655 13.7104 132.058 11.7987 130.759C7.88682 132.286 4.23309 134.406 0.965576 137.044C4.81029 140.948 9.02138 144.473 13.5407 147.571C16.0235 146.934 18.6676 146.292 18.6676 146.292L15.407 148.829C19.5741 151.589 24.0276 153.891 28.6897 155.694C31.0359 154.341 34.1063 152.425 34.1063 152.425L30.5518 156.356C35.5104 158.097 40.7505 158.897 46.0028 158.715L50.2607 154.502L48.5642 158.503C55.5656 157.655 62.7076 154.601 69.5145 148.159C67.8925 144.29 63.7463 140.086 58.069 136.51Z" fill="#9BDEFF"/>
<path fill-rule="evenodd" clip-rule="evenodd" d="M0.557158 136.978C0.593748 136.752 0.806281 136.599 1.03186 136.636L69.5808 147.754C69.8064 147.791 69.9596 148.003 69.923 148.229C69.8864 148.455 69.6739 148.608 69.4483 148.571L0.899362 137.453C0.673779 137.416 0.520569 137.203 0.557158 136.978Z" fill="white"/>
<path d="M174.887 125.586H86.7863C84.0346 125.586 81.407 123.352 81.407 120.6V27.5339C81.407 24.7822 84.0511 22.5684 86.7863 22.5684H174.887C177.639 22.5684 180.287 24.7987 180.287 27.5339V120.6C180.287 123.352 177.655 125.586 174.887 125.586Z" fill="#9BDEFF"/>
<path fill-rule="evenodd" clip-rule="evenodd" d="M86.7863 22.9821C84.2352 22.9821 81.8208 25.0527 81.8208 27.5339V120.6C81.8208 123.084 84.2218 125.172 86.7863 125.172H174.887C177.469 125.172 179.873 123.083 179.873 120.6V27.5339C179.873 25.0696 177.455 22.9821 174.887 22.9821H86.7863ZM80.9932 27.5339C80.9932 24.5115 83.867 22.1545 86.7863 22.1545H174.887C177.822 22.1545 180.701 24.5278 180.701 27.5339V120.6C180.701 123.621 177.841 126 174.887 126H86.7863C83.8473 126 80.9932 123.619 80.9932 120.6V27.5339Z" fill="#1D1E26"/>
<mask id="mask0_18395_59719" style="mask-type:alpha" maskUnits="userSpaceOnUse" x="81" y="22" width="100" height="104">
<path d="M174.887 125.586H86.7863C84.0346 125.586 81.407 123.352 81.407 120.6V27.5339C81.407 24.7822 84.0511 22.5684 86.7863 22.5684H174.887C177.639 22.5684 180.287 24.7987 180.287 27.5339V120.6C180.287 123.352 177.655 125.586 174.887 125.586Z" fill="#9BDEFF"/>
</mask>
<g mask="url(#mask0_18395_59719)">
<path fill-rule="evenodd" clip-rule="evenodd" d="M69.8168 99.2466C69.9778 99.0844 70.2398 99.0834 70.402 99.2443L121.282 149.727C121.444 149.888 121.445 150.15 121.284 150.312C121.123 150.474 120.861 150.476 120.699 150.315L69.8191 99.8318C69.6569 99.6708 69.6559 99.4088 69.8168 99.2466Z" fill="white"/>
<path fill-rule="evenodd" clip-rule="evenodd" d="M72.8017 28.407C73.0074 28.3073 73.2549 28.3932 73.3546 28.5988L136.955 159.771C137.054 159.977 136.968 160.224 136.763 160.324C136.557 160.424 136.31 160.338 136.21 160.132L72.6099 28.9599C72.5102 28.7543 72.5961 28.5067 72.8017 28.407Z" fill="white"/>
<path fill-rule="evenodd" clip-rule="evenodd" d="M142.576 6.51548C142.759 6.65121 142.798 6.91029 142.663 7.09415L60.1854 118.818C60.0497 119.002 59.7906 119.041 59.6068 118.905C59.4229 118.77 59.3839 118.511 59.5196 118.327L141.997 6.60263C142.133 6.41877 142.392 6.37975 142.576 6.51548Z" fill="white"/>
<path fill-rule="evenodd" clip-rule="evenodd" d="M197.977 60.314C198.158 60.4538 198.191 60.7136 198.052 60.8945L121.318 160.205C121.178 160.386 120.918 160.419 120.737 160.279C120.557 160.14 120.523 159.88 120.663 159.699L197.397 60.3885C197.537 60.2076 197.796 60.1743 197.977 60.314Z" fill="white"/>
<path fill-rule="evenodd" clip-rule="evenodd" d="M192.316 43.4397C192.447 43.6273 192.401 43.8852 192.213 44.0157L60.0888 135.878C59.9011 136.008 59.6433 135.962 59.5128 135.774C59.3823 135.587 59.4287 135.329 59.6163 135.198L191.74 43.3362C191.928 43.2057 192.186 43.2521 192.316 43.4397Z" fill="white"/>
<path fill-rule="evenodd" clip-rule="evenodd" d="M91.9658 11.5323C92.1213 11.3648 92.3831 11.3551 92.5506 11.5106L221.803 131.511C221.97 131.666 221.98 131.928 221.825 132.095C221.669 132.263 221.407 132.273 221.24 132.117L91.9875 12.1171C91.82 11.9616 91.8103 11.6998 91.9658 11.5323Z" fill="white"/>
<path fill-rule="evenodd" clip-rule="evenodd" d="M75.2324 2.76882C75.4286 2.65174 75.6827 2.71593 75.7997 2.91219L169.354 159.74C169.471 159.936 169.407 160.19 169.211 160.307C169.015 160.424 168.761 160.36 168.643 160.164L75.089 3.33617C74.9719 3.13991 75.0361 2.8859 75.2324 2.76882Z" fill="white"/>
<path fill-rule="evenodd" clip-rule="evenodd" d="M125.643 0.328922C125.816 0.179147 126.077 0.19766 126.227 0.37027L198.037 83.1289C198.187 83.3015 198.168 83.5628 197.995 83.7126C197.823 83.8624 197.561 83.8439 197.412 83.6713L125.602 0.912651C125.452 0.74004 125.471 0.478696 125.643 0.328922Z" fill="white"/>
<path fill-rule="evenodd" clip-rule="evenodd" d="M67.271 75.3686C67.3646 75.1601 67.6094 75.067 67.8179 75.1605L224.563 145.505C224.771 145.599 224.864 145.844 224.771 146.052C224.677 146.261 224.432 146.354 224.224 146.26L67.4791 75.9156C67.2706 75.822 67.1774 75.5771 67.271 75.3686Z" fill="white"/>
<path fill-rule="evenodd" clip-rule="evenodd" d="M159.279 8.9379C159.497 9.00902 159.615 9.24273 159.544 9.45992L101.278 187.391C101.206 187.608 100.973 187.727 100.756 187.655C100.538 187.584 100.42 187.351 100.491 187.133L158.757 9.20237C158.828 8.98518 159.062 8.86678 159.279 8.9379Z" fill="white"/>
<path fill-rule="evenodd" clip-rule="evenodd" d="M86.7863 22.9821C84.2352 22.9821 81.8208 25.0527 81.8208 27.5339V120.6C81.8208 123.084 84.2218 125.172 86.7863 125.172H174.887C177.469 125.172 179.873 123.083 179.873 120.6V27.5339C179.873 25.0696 177.455 22.9821 174.887 22.9821H86.7863ZM80.9932 27.5339C80.9932 24.5115 83.867 22.1545 86.7863 22.1545H174.887C177.822 22.1545 180.701 24.5278 180.701 27.5339V120.6C180.701 123.621 177.841 126 174.887 126H86.7863C83.8473 126 80.9932 123.619 80.9932 120.6V27.5339Z" fill="#1D1E26"/>
</g>
<path d="M180.287 30.8276H81.3904V27.1035C81.3904 25.7866 81.9135 24.5236 82.8447 23.5923C83.776 22.6611 85.039 22.138 86.3559 22.138H175.301C175.955 22.1353 176.602 22.2617 177.207 22.51C177.812 22.7583 178.362 23.1237 178.825 23.585C179.289 24.0464 179.656 24.5947 179.907 25.1985C180.158 25.8023 180.287 26.4497 180.287 27.1035V30.8276Z" fill="white"/>
<path fill-rule="evenodd" clip-rule="evenodd" d="M177.05 22.8928C176.496 22.6651 175.902 22.5492 175.302 22.5517L175.301 22.5518H86.3559C85.1487 22.5518 83.9909 23.0313 83.1373 23.8849C82.2837 24.7385 81.8041 25.8963 81.8041 27.1035V30.4138H179.873V27.1035C179.873 26.5041 179.755 25.9107 179.525 25.3572C179.295 24.8037 178.958 24.3011 178.533 23.8782C178.109 23.4553 177.605 23.1204 177.05 22.8928ZM175.3 21.7242C176.008 21.7213 176.709 21.8583 177.364 22.1272C178.02 22.3962 178.615 22.792 179.117 23.2918C179.619 23.7916 180.017 24.3856 180.289 25.0397C180.561 25.6938 180.701 26.3952 180.701 27.1035V30.8276C180.701 31.0561 180.515 31.2414 180.287 31.2414H81.3904C81.1618 31.2414 80.9766 31.0561 80.9766 30.8276V27.1035C80.9766 25.6768 81.5433 24.3085 82.5521 23.2997C83.5609 22.2909 84.9292 21.7242 86.3559 21.7242H175.3Z" fill="#1D1E26"/>
<path d="M87.3242 28.2166C88.3183 28.2166 89.1242 27.4107 89.1242 26.4166C89.1242 25.4225 88.3183 24.6166 87.3242 24.6166C86.3301 24.6166 85.5242 25.4225 85.5242 26.4166C85.5242 27.4107 86.3301 28.2166 87.3242 28.2166Z" fill="#1D1E26"/>
<path d="M93.5974 28.2166C94.5915 28.2166 95.3974 27.4107 95.3974 26.4166C95.3974 25.4225 94.5915 24.6166 93.5974 24.6166C92.6033 24.6166 91.7974 25.4225 91.7974 26.4166C91.7974 27.4107 92.6033 28.2166 93.5974 28.2166Z" fill="#1D1E26"/>
<path d="M99.8664 28.2166C100.861 28.2166 101.666 27.4107 101.666 26.4166C101.666 25.4225 100.861 24.6166 99.8664 24.6166C98.8723 24.6166 98.0664 25.4225 98.0664 26.4166C98.0664 27.4107 98.8723 28.2166 99.8664 28.2166Z" fill="#1D1E26"/>
<path d="M151.71 47.8055H63.6139C60.8601 47.8055 58.6277 50.0379 58.6277 52.7918V145.854C58.6277 148.608 60.8601 150.84 63.6139 150.84H151.71C154.464 150.84 156.697 148.608 156.697 145.854V52.7918C156.697 50.0379 154.464 47.8055 151.71 47.8055Z" fill="white"/>
<path fill-rule="evenodd" clip-rule="evenodd" d="M63.6139 48.2193C61.0886 48.2193 59.0415 50.2664 59.0415 52.7917V145.854C59.0415 148.379 61.0886 150.426 63.6139 150.426H151.71C154.236 150.426 156.283 148.379 156.283 145.854V52.7917C156.283 50.2665 154.236 48.2193 151.71 48.2193H63.6139ZM58.2139 52.7917C58.2139 49.8094 60.6315 47.3917 63.6139 47.3917H151.71C154.693 47.3917 157.11 49.8094 157.11 52.7917V145.854C157.11 148.836 154.693 151.254 151.71 151.254H63.6139C60.6315 151.254 58.2139 148.836 58.2139 145.854V52.7917Z" fill="#1D1E26"/>
<path d="M157.11 56.0814H58.2139V52.3572C58.2193 51.0384 58.7471 49.7755 59.6816 48.8448C60.6161 47.9142 61.8812 47.3917 63.2001 47.3917H152.124C153.443 47.3928 154.707 47.9156 155.641 48.846C156.576 49.7764 157.104 51.0387 157.11 52.3572V56.0814Z" fill="#008ACE"/>
<path d="M64.5656 53.4745C65.5597 53.4745 66.3656 52.6686 66.3656 51.6745C66.3656 50.6804 65.5597 49.8745 64.5656 49.8745C63.5715 49.8745 62.7656 50.6804 62.7656 51.6745C62.7656 52.6686 63.5715 53.4745 64.5656 53.4745Z" fill="#1D1E26"/>
<path d="M70.8347 53.4745C71.8288 53.4745 72.6347 52.6686 72.6347 51.6745C72.6347 50.6804 71.8288 49.8745 70.8347 49.8745C69.8406 49.8745 69.0347 50.6804 69.0347 51.6745C69.0347 52.6686 69.8406 53.4745 70.8347 53.4745Z" fill="#1D1E26"/>
<path d="M77.1035 53.4745C78.0976 53.4745 78.9035 52.6686 78.9035 51.6745C78.9035 50.6804 78.0976 49.8745 77.1035 49.8745C76.1094 49.8745 75.3035 50.6804 75.3035 51.6745C75.3035 52.6686 76.1094 53.4745 77.1035 53.4745Z" fill="#1D1E26"/>
<path fill-rule="evenodd" clip-rule="evenodd" d="M48.9677 36.0668C49.1342 35.9103 49.396 35.9183 49.5526 36.0848L56.5581 43.533C56.7147 43.6995 56.7067 43.9614 56.5402 44.118C56.3737 44.2745 56.1119 44.2665 55.9553 44.1L48.9498 36.6518C48.7932 36.4853 48.8012 36.2234 48.9677 36.0668Z" fill="#1D1E26"/>
<path fill-rule="evenodd" clip-rule="evenodd" d="M46.9893 44.0467C47.0907 43.8419 47.3389 43.7581 47.5438 43.8595L53.8127 46.9629C54.0175 47.0643 54.1014 47.3125 54 47.5173C53.8986 47.7221 53.6504 47.806 53.4456 47.7046L47.1766 44.6011C46.9718 44.4997 46.8879 44.2515 46.9893 44.0467Z" fill="#1D1E26"/>
<path fill-rule="evenodd" clip-rule="evenodd" d="M183.97 9.36573C184.179 9.45733 184.275 9.70132 184.183 9.91069L181.287 16.5314C181.195 16.7407 180.951 16.8362 180.742 16.7446C180.532 16.653 180.437 16.409 180.528 16.1997L183.425 9.57897C183.517 9.3696 183.761 9.27413 183.97 9.36573Z" fill="#1D1E26"/>
<path fill-rule="evenodd" clip-rule="evenodd" d="M192.373 9.86607C192.534 10.0277 192.534 10.2897 192.373 10.4513L184.097 18.7271C183.935 18.8887 183.673 18.8887 183.512 18.7271C183.35 18.5655 183.35 18.3035 183.512 18.1419L191.787 9.86607C191.949 9.70447 192.211 9.70447 192.373 9.86607Z" fill="#1D1E26"/>
<path fill-rule="evenodd" clip-rule="evenodd" d="M192.464 19.1084C192.549 19.3206 192.446 19.5614 192.234 19.6462L186.027 22.129C185.815 22.2139 185.574 22.1107 185.489 21.8985C185.404 21.6863 185.507 21.4455 185.719 21.3606L191.926 18.8779C192.139 18.793 192.379 18.8962 192.464 19.1084Z" fill="#1D1E26"/>
<path fill-rule="evenodd" clip-rule="evenodd" d="M182.977 54.8483C183.205 54.8483 183.39 55.0335 183.39 55.2621V113.607C183.39 113.835 183.205 114.021 182.977 114.021C182.748 114.021 182.563 113.835 182.563 113.607V55.2621C182.563 55.0335 182.748 54.8483 182.977 54.8483Z" fill="#1D1E26"/>
<path d="M133.371 157.945C156.567 157.945 175.371 139.141 175.371 115.945C175.371 92.7489 156.567 73.9448 133.371 73.9448C110.175 73.9448 91.3711 92.7489 91.3711 115.945C91.3711 139.141 110.175 157.945 133.371 157.945Z" fill="#008ACE"/>
<path d="M133.371 149.669C151.996 149.669 167.095 134.57 167.095 115.945C167.095 97.3195 151.996 82.2207 133.371 82.2207C114.746 82.2207 99.647 97.3195 99.647 115.945C99.647 134.57 114.746 149.669 133.371 149.669Z" fill="white"/>
<path d="M117.312 113.565C119.414 113.565 121.119 111.861 121.119 109.759C121.119 107.656 119.414 105.952 117.312 105.952C115.209 105.952 113.505 107.656 113.505 109.759C113.505 111.861 115.209 113.565 117.312 113.565Z" fill="#1D1E26"/>
<path d="M149.435 113.565C151.537 113.565 153.241 111.861 153.241 109.759C153.241 107.656 151.537 105.952 149.435 105.952C147.332 105.952 145.628 107.656 145.628 109.759C145.628 111.861 147.332 113.565 149.435 113.565Z" fill="#1D1E26"/>
<path fill-rule="evenodd" clip-rule="evenodd" d="M133.38 123.952C128.788 123.952 124.855 126.211 122.912 129.375C122.673 129.765 122.164 129.886 121.774 129.647C121.385 129.408 121.263 128.899 121.502 128.509C123.772 124.812 128.264 122.297 133.38 122.297C138.488 122.297 143.026 124.782 145.262 128.517C145.497 128.909 145.369 129.417 144.977 129.652C144.585 129.887 144.077 129.759 143.842 129.367C141.94 126.191 137.979 123.952 133.38 123.952Z" fill="#1D1E26"/>
<path d="M170.965 137.356L163.143 147.133L164.811 148.467L172.633 138.69L170.965 137.356Z" fill="#1D1E26"/>
<path d="M200.774 163.345C201.353 165.488 197.443 170.197 195.221 170.284C188.186 170.561 166.491 146.371 166.491 146.371L170.931 140.818C170.931 140.818 199.053 156.96 200.774 163.345Z" fill="#9BDEFF"/>
<path d="M204.424 178.378C207.861 178.378 210.647 175.592 210.647 172.154C210.647 168.717 207.861 165.931 204.424 165.931C200.987 165.931 198.2 168.717 198.2 172.154C198.2 175.592 200.987 178.378 204.424 178.378Z" fill="#9BDEFF"/>
<path d="M199.586 168.269C200.428 167.216 201.59 166.468 202.897 166.138L200.774 164.441C200.31 166.51 197.815 169.436 195.937 170.131L198.233 171.968C198.268 170.621 198.743 169.321 199.586 168.269Z" fill="#1D1E26"/>
<path d="M72.3572 138.314L68.8566 141.269L71.5793 135.952C70.0281 131.588 68.0314 127.397 65.6207 123.443L61.6069 127.957L63.9862 120.881C61.1562 116.625 57.8216 112.726 54.0552 109.27L50.331 114.819L51.8703 107.371C48.3402 104.459 44.428 102.043 40.2428 100.192L39.6759 104.797C39.6759 104.797 39.0014 101.901 38.3434 99.4179C34.0793 97.7763 29.5883 96.7994 25.0276 96.5214C25.4616 102.553 26.4604 108.531 28.011 114.377C30.4938 115.688 33.1297 117.128 33.1297 117.128L28.669 116.781C30.1583 122.107 32.1997 127.263 34.76 132.166C37.6566 132.803 41.5048 133.519 41.5048 133.519L35.8276 134.069C38.6993 139.034 42.32 143.669 46.8966 147.418L53.3476 147.149L49.1559 149.139C55.5117 153.629 63.5269 156.439 73.6359 156.244C75.0345 151.912 74.5379 145.428 72.3572 138.314Z" fill="#008ACE"/>
<path fill-rule="evenodd" clip-rule="evenodd" d="M24.7292 96.184C24.9064 96.0397 25.1671 96.0664 25.3114 96.2436L73.9569 155.995C74.1012 156.173 74.0745 156.433 73.8972 156.577C73.72 156.722 73.4594 156.695 73.3151 156.518L24.6696 96.7661C24.5253 96.5889 24.552 96.3283 24.7292 96.184Z" fill="white"/>
</g>
<defs>
<clipPath id="clip0_18395_59719">
<rect width="230.897" height="180" fill="white" transform="translate(0.551758)"/>
</clipPath>
</defs>
</svg>

<svg xmlns="http://www.w3.org/2000/svg" width="232" height="180" viewBox="0 0 232 180"><g clip-path="url(#clip0_18395_59719)"><path d="M150.585 1.535C49.483-11.495 27.481 61.805 45.725 97.481c10.581 20.69-39.64 70.792 17.744 81.468 27.538 5.123 36-13.341 62.433-10.655 35.4 3.6 148.167-4.73 88.349-78.915-31.713-39.335 1.026-79.506-63.666-87.844z"/><path d="M58.069 136.51l-.654 4.238-1.27-5.38a58.934 58.934 0 00-11.462-4.965l-.083 5.636-2.545-6.393a55.094 55.094 0 00-13.655-1.854l.704 6.178-3.356-6.108c-4.151.183-8.256.946-12.195 2.268l2.33 3.525s-2.173-1.597-4.084-2.896a40.951 40.951 0 00-10.833 6.285 85.492 85.492 0 0012.575 10.527c2.482-.637 5.127-1.279 5.127-1.279l-3.261 2.537a69.366 69.366 0 0013.283 6.865c2.346-1.353 5.416-3.269 5.416-3.269l-3.554 3.931a42.226 42.226 0 0015.45 2.359l4.259-4.213-1.697 4.001c7.002-.848 14.144-3.902 20.95-10.344-1.621-3.869-5.768-8.073-11.445-11.649z"/><path fill-rule="evenodd" d="M.557 136.978a.413.413 0 01.475-.342l68.549 11.118a.414.414 0 01-.133.817L.9 137.453a.415.415 0 01-.342-.475z" clip-rule="evenodd"/><path d="M174.887 125.586h-88.1c-2.752 0-5.38-2.234-5.38-4.986V27.534c0-2.752 2.644-4.966 5.38-4.966h88.1c2.752 0 5.4 2.23 5.4 4.966V120.6c0 2.752-2.632 4.986-5.4 4.986z"/><path fill-rule="evenodd" d="M86.786 22.982c-2.55 0-4.965 2.07-4.965 4.552V120.6c0 2.484 2.4 4.572 4.965 4.572h88.101c2.582 0 4.986-2.089 4.986-4.572V27.534c0-2.464-2.418-4.552-4.986-4.552h-88.1zm-5.793 4.552c0-3.022 2.874-5.38 5.793-5.38h88.101c2.935 0 5.814 2.374 5.814 5.38V120.6c0 3.021-2.86 5.4-5.814 5.4h-88.1c-2.94 0-5.794-2.381-5.794-5.4V27.534z" clip-rule="evenodd"/><mask id="1_a" style="mask-type:alpha" width="100" height="104" x="81" y="22" maskUnits="userSpaceOnUse"><path d="M174.887 125.586h-88.1c-2.752 0-5.38-2.234-5.38-4.986V27.534c0-2.752 2.644-4.966 5.38-4.966h88.1c2.752 0 5.4 2.23 5.4 4.966V120.6c0 2.752-2.632 4.986-5.4 4.986z"/></mask><g fill-rule="evenodd" clip-rule="evenodd" mask="url(#1_a)"><path d="M69.817 99.247a.414.414 0 01.585-.003l50.88 50.483a.414.414 0 01-.583.588l-50.88-50.483a.414.414 0 01-.002-.585zM72.802 28.407a.414.414 0 01.553.192l63.6 131.172a.413.413 0 11-.745.361L72.61 28.96a.414.414 0 01.192-.553z"/><path d="M142.576 6.515a.415.415 0 01.087.58L60.185 118.817a.413.413 0 11-.665-.491L141.997 6.603a.414.414 0 01.579-.088zM197.977 60.314c.181.14.214.4.075.58l-76.734 99.311a.414.414 0 01-.655-.506l76.734-99.31a.413.413 0 01.58-.075zM192.316 43.44a.413.413 0 01-.103.576L60.089 135.878a.414.414 0 01-.473-.68L191.74 43.336a.414.414 0 01.576.104z"/><path d="M91.966 11.532a.414.414 0 01.585-.021l129.252 120a.414.414 0 01-.563.606l-129.252-120a.414.414 0 01-.022-.585zM75.232 2.769a.414.414 0 01.568.143l93.554 156.828a.414.414 0 11-.711.424L75.089 3.336a.414.414 0 01.143-.567zM125.643.329a.414.414 0 01.584.041l71.81 82.759a.413.413 0 11-.625.542L125.602.913a.414.414 0 01.041-.584z"/><path d="M67.271 75.369a.414.414 0 01.547-.209l156.745 70.345a.413.413 0 11-.339.755L67.479 75.916a.414.414 0 01-.208-.547z"/><path d="M159.279 8.938a.414.414 0 01.265.522L101.278 187.39a.413.413 0 11-.787-.258l58.266-177.93a.414.414 0 01.522-.265z"/><path d="M86.786 22.982c-2.55 0-4.965 2.07-4.965 4.552V120.6c0 2.484 2.4 4.572 4.965 4.572h88.101c2.582 0 4.986-2.089 4.986-4.572V27.534c0-2.464-2.418-4.552-4.986-4.552h-88.1zm-5.793 4.552c0-3.022 2.874-5.38 5.793-5.38h88.101c2.935 0 5.814 2.374 5.814 5.38V120.6c0 3.021-2.86 5.4-5.814 5.4h-88.1c-2.94 0-5.794-2.381-5.794-5.4V27.534z"/></g><path d="M180.287 30.828H81.39v-3.724a4.966 4.966 0 014.966-4.966H175.3a4.963 4.963 0 014.986 4.965v3.725z"/><path fill-rule="evenodd" d="M177.05 22.893a4.548 4.548 0 00-1.748-.341H86.356a4.552 4.552 0 00-4.552 4.552v3.31h98.069v-3.31a4.55 4.55 0 00-2.823-4.211zm-1.75-1.169a5.375 5.375 0 014.989 3.316c.272.654.412 1.355.412 2.064v3.724a.414.414 0 01-.414.413H81.39a.414.414 0 01-.413-.413v-3.724a5.38 5.38 0 015.379-5.38H175.3z" clip-rule="evenodd"/><path d="M87.324 28.217a1.8 1.8 0 100-3.6 1.8 1.8 0 000 3.6zM93.597 28.217a1.8 1.8 0 100-3.6 1.8 1.8 0 000 3.6zM99.866 28.217a1.8 1.8 0 100-3.6 1.8 1.8 0 000 3.6z"/><path d="M151.71 47.806H63.614a4.986 4.986 0 00-4.986 4.986v93.062a4.986 4.986 0 004.986 4.986h88.096a4.986 4.986 0 004.987-4.986V52.792a4.987 4.987 0 00-4.987-4.986z"/><path fill-rule="evenodd" d="M63.614 48.22a4.572 4.572 0 00-4.572 4.572v93.062a4.572 4.572 0 004.572 4.572h88.096a4.572 4.572 0 004.573-4.572V52.792a4.572 4.572 0 00-4.573-4.573H63.614zm-5.4 4.572a5.4 5.4 0 015.4-5.4h88.096a5.4 5.4 0 015.4 5.4v93.062a5.4 5.4 0 01-5.4 5.4H63.614a5.4 5.4 0 01-5.4-5.4V52.792z" clip-rule="evenodd"/><path d="M157.11 56.081H58.214v-3.724a4.986 4.986 0 014.986-4.965h88.924a4.988 4.988 0 014.986 4.965v3.724z"/><path d="M64.566 53.474a1.8 1.8 0 100-3.6 1.8 1.8 0 000 3.6zM70.835 53.474a1.8 1.8 0 100-3.6 1.8 1.8 0 000 3.6zM77.103 53.474a1.8 1.8 0 100-3.6 1.8 1.8 0 000 3.6z"/><path fill-rule="evenodd" d="M48.968 36.067a.414.414 0 01.585.018l7.005 7.448a.414.414 0 11-.603.567l-7.005-7.448a.414.414 0 01.018-.585zM46.99 44.047a.414.414 0 01.554-.188l6.269 3.104a.414.414 0 01-.367.742l-6.27-3.104a.414.414 0 01-.187-.554zM183.97 9.366a.414.414 0 01.213.545l-2.896 6.62a.414.414 0 01-.759-.331l2.897-6.621a.414.414 0 01.545-.213zM192.373 9.866a.415.415 0 010 .585l-8.276 8.276a.414.414 0 11-.585-.585l8.275-8.276a.415.415 0 01.586 0zM192.464 19.108a.413.413 0 01-.23.538l-6.207 2.483a.414.414 0 01-.308-.768l6.207-2.483a.414.414 0 01.538.23zM182.977 54.848c.228 0 .413.185.413.414v58.345a.414.414 0 11-.827 0V55.262c0-.229.185-.414.414-.414z" clip-rule="evenodd"/><path d="M133.371 157.945c23.196 0 42-18.804 42-42s-18.804-42-42-42-42 18.804-42 42 18.804 42 42 42z"/><path d="M133.371 149.669c18.625 0 33.724-15.099 33.724-33.724 0-18.625-15.099-33.724-33.724-33.724-18.625 0-33.724 15.099-33.724 33.724 0 18.625 15.099 33.724 33.724 33.724z"/><path d="M117.312 113.565a3.807 3.807 0 100-7.614 3.807 3.807 0 000 7.614zM149.435 113.565a3.806 3.806 0 100-7.612 3.806 3.806 0 000 7.612z"/><path fill-rule="evenodd" d="M133.38 123.952c-4.592 0-8.525 2.259-10.468 5.423a.827.827 0 11-1.41-.866c2.27-3.697 6.762-6.212 11.878-6.212 5.108 0 9.646 2.485 11.882 6.22a.827.827 0 11-1.42.85c-1.902-3.176-5.863-5.415-10.462-5.415z" clip-rule="evenodd"/><path d="M170.965 137.356l-7.822 9.777 1.668 1.334 7.822-9.777-1.668-1.334z"/><path d="M200.774 163.345c.579 2.143-3.331 6.852-5.553 6.939-7.035.277-28.73-23.913-28.73-23.913l4.44-5.553s28.122 16.142 29.843 22.527z"/><path d="M204.424 178.378a6.223 6.223 0 006.223-6.224 6.224 6.224 0 10-6.223 6.224z"/><path d="M199.586 168.269a6.173 6.173 0 013.311-2.131l-2.123-1.697c-.464 2.069-2.959 4.995-4.837 5.69l2.296 1.837a6.173 6.173 0 011.353-3.699z"/><path d="M72.357 138.314l-3.5 2.955 2.722-5.317a67.379 67.379 0 00-5.958-12.509l-4.014 4.514 2.38-7.076a63.412 63.412 0 00-9.932-11.611l-3.724 5.549 1.54-7.448a50.152 50.152 0 00-11.628-7.179l-.567 4.605s-.675-2.896-1.333-5.38a44.62 44.62 0 00-13.315-2.896 96.722 96.722 0 002.983 17.856c2.483 1.311 5.119 2.751 5.119 2.751l-4.461-.347a79.474 79.474 0 006.091 15.385c2.897.637 6.745 1.353 6.745 1.353l-5.677.55c2.871 4.965 6.492 9.6 11.069 13.349l6.45-.269-4.191 1.99c6.356 4.49 14.37 7.3 24.48 7.105 1.398-4.332.902-10.816-1.279-17.93z"/><path fill-rule="evenodd" d="M24.73 96.184a.414.414 0 01.581.06l48.646 59.751a.413.413 0 11-.642.523L24.67 96.766a.414.414 0 01.06-.582z" clip-rule="evenodd"/></g><defs><clipPath id="clip0_18395_59719"><path d="M0 0h230.897v180H0z" transform="translate(.552)"/></clipPath></defs></svg>
